!!!!SEGMENT: Gsc1001d-Missa_Mijn_herte_altijt-Sanctus.krn
!!!id: Gsc1001d
!!!AGN: Mass; Sanctus
!!!voices: 2–4
!!!COM: Mathieu Gascongne
!!!OPR: Missa Mijn herte altijt
!!!OTL: Sanctus
**kern	**kern	**kern	**kern
*part4	*part3	*part2	*part1
*staff4	*staff3	*staff2	*staff1
*I"Bassus	*I"Tenor	*I"Altus	*I"Superius
*I'B	*I'T	*I'A	*I'S
*clefF4	*clefGv2	*clefG2	*clefG2
*k[]	*k[]	*k[]	*k[]
*C:	*C:	*C:	*C:
*M2/1	*M2/1	*M2/1	*M2/1
*met(C|)	*met(C|)	*met(C|)	*met(C|)
!!section: Sanctus
!!!OMD: Sanctus
=1	=1	=1	=1
0r	0r	0g	0r
=2	=2	=2	=2
0r	0r	1g	0dd
.	.	1d	.
=3	=3	=3	=3
0r	0r	2r	1dd
.	.	1f	.
.	.	.	1a
.	.	4e	.
.	.	4d	.
=4	=4	=4	=4
0r	0r	1e	1r
.	.	1a	1cc
=5	=5	=5	=5
0r	0r	2g	2dd
.	.	2a	1ff
.	.	2d	.
.	.	2f	4ee
.	.	.	4dd
=6	=6	=6	=6
0r	0r	2g	1ee
.	.	2.a	.
.	.	.	2a
.	.	4g	.
.	.	4f	2cc
.	.	4e	.
=7	=7	=7	=7
0r	0r	1d	2b
.	.	.	2.a
.	.	2r	.
.	.	.	4g
.	.	[2a	4f
.	.	.	4e
=8	=8	=8	=8
0r	0r	4a]	2d
.	.	4g	.
.	.	2f	1dd
.	.	1e	.
.	.	.	2cc
=9	=9	=9	=9
0G	0r	1d	2.dd
.	.	.	4cc
.	.	[1g	4b
.	.	.	4a
.	.	.	[2b
=10	=10	=10	=10
1G	0d	2g]	2b]
.	.	4f	4a
.	.	4e	4g
1D	.	[1f	1a
=11	=11	=11	=11
2r	1d	2f]	2r
1F	.	4e	2.a
.	.	4d	.
.	1A	4f	.
.	.	4e	4b
4E	.	[2a	[2cc
4D	.	.	.
=12	=12	=12	=12
1E	1r	2a]	4cc]
.	.	.	4dd
.	.	2g	2ee
1A	1c	2e	2ee
.	.	2f	4dd
.	.	.	4cc
=13	=13	=13	=13
2G	2d	2g	2b
2A	1f	2c	1a
2D	.	2.d	.
2F	4e	.	[2dd
.	4d	4c	.
=14	=14	=14	=14
2G	1e	2B	2dd]
2A	.	2A	2cc
4A	1A	1a	[1ff
4G	.	.	.
4F	.	.	.
4E	.	.	.
=15	=15	=15	=15
1D	1r	2r	2ff]
.	.	2.a	4ee
.	.	.	4dd
1A	1c	.	2ee
.	.	4g	.
.	.	4f	[2ff
.	.	4e	.
=16	=16	=16	=16
0B	2d	2.d	4ff]
.	.	.	4ee
.	2f	.	4dd
.	.	4e	4cc
.	2f	2f	1dd
.	4e	2g	.
.	4d	.	.
=17	=17	=17	=17
2A	1e	2a	2cc
1c	.	2.A	1ee
.	1A	.	.
.	.	4B	.
4B	.	[2c	4dd
4A	.	.	4cc
=18	=18	=18	=18
1G	1e	2c]	1b
.	.	2B	.
1F	[1f	2c	[1a
.	.	[2d	.
=19	=19	=19	=19
2r	1f]	2d]	1a]
1A	.	4c	.
.	.	4B	.
.	2e	4c	1r
.	.	4d	.
2G	[2g	[2e	.
=20	=20	=20	=20
1c	2g]	4e]	0r
.	.	4A	.
.	4f	1a	.
.	4e	.	.
1B	1d	.	.
.	.	2g#i	.
=21	=21	=21	=21
1A	1c	[0a	0r
1D	2r	.	.
.	[2f	.	.
=22	=22	=22	=22
0A	4f]	0a_	1r
.	4e	.	.
.	1e	.	.
.	.	.	2r
.	4d	.	[2ff
.	4c	.	.
=23	=23	=23	=23
0r	2d	0a]	4ff]
.	.	.	4ee
.	2c	.	1ee
.	2c	.	.
.	4B	.	4dd
.	4A	.	4cc
=24	=24	=24	=24
1r	2B	0r	2dd
.	1A	.	1cc
2r	.	.	.
2F	[2d	.	4b
.	.	.	4a
=25	=25	=25	=25
2G	2d]	1r	2b
2A	2c	.	1a
1D	1d	2r	.
.	.	[2f	[2dd
=26	=26	=26	=26
1A	0r	4f]	2dd]
.	.	4e	.
.	.	1e	2cc#i
2r	.	.	1dd
[2B	.	4d	.
.	.	4c	.
=27	=27	=27	=27
4B]	0r	2d	0r
4A	.	.	.
1A	.	1c	.
4G	.	4B	.
4F	.	4A	.
=28	=28	=28	=28
2G	0r	2B	0r
1F	.	1A	.
4E	.	[2d	.
4D	.	.	.
=29	=29	=29	=29
1E	1e	2d]	0r
.	.	2c#i	.
2D	2.f	1d	.
[2d	.	.	.
.	4e	.	.
=30	=30	=30	=30
2d]	4f	2r	2r
.	4g	.	.
4c	2a	2d	2.ff
4B	.	.	.
1A	2A	2.c	.
.	.	.	4ee
.	2c	.	[2ee
.	.	4d	.
=31	=31	=31	=31
2r	2d	2e	2ee]
2.B	1f	2f	4dd
.	.	.	4cc
.	.	4d	2dd
4A	.	4e	.
[2A	2e	4f	[2cc
.	.	4g	.
=32	=32	=32	=32
2A]	1f	2a	2cc]
4G	.	2A	4b
4F	.	.	4a
2G	2.d	2G	2b
[2F	.	2A	[2a
.	4e	.	.
=33	=33	=33	=33
2F]	2f	1d	2a]
4E	2g	.	1dd
4D	.	.	.
1A	1e	2A	.
.	.	[2a	2cc#i
=34	=34	=34	=34
[0Dl	[0dl	2a]	[0ddl
.	.	4g	.
.	.	4f	.
.	.	1b-i	.
=35	=35	=35	=35
00D]	00d]	00a	00dd]
=36||	=36||	=36||	=36||
*M2/1	*M2/1	*M2/1	*M2/1
*met(C|)	*met(C|)	*met(C|)	*met(C|)
!!section: Pleni sunt
!!!OMD: Pleni sunt
0r	0r	1.a	0r
.	.	4g	.
.	.	4f	.
=37	=37	=37	=37
0r	0r	2e	0r
.	.	2d	.
.	.	1f	.
=38	=38	=38	=38
0r	0r	1g	1.ee
.	.	1a	.
.	.	.	4dd
.	.	.	4cc
=39	=39	=39	=39
0r	0r	1d	2b
.	.	.	2a
.	.	2r	1cc
.	.	2a	.
=40	=40	=40	=40
0r	0r	2f	1dd
.	.	1g	.
.	.	.	1ee
.	.	4f	.
.	.	4e	.
=41	=41	=41	=41
0r	0r	2.f	2.a
.	.	4g	4b
.	.	2a	2cc
.	.	[2b	[2dd
=42	=42	=42	=42
0r	0r	2b]	4dd]
.	.	.	4cc
.	.	1a	4b
.	.	.	4a
.	.	.	1b
.	.	2g#i	.
=43	=43	=43	=43
0r	0r	2a	1a
.	.	2.cc	.
.	.	.	[1ee
.	.	4b	.
.	.	[2a	.
=44	=44	=44	=44
0r	0r	2a]	1ee]
.	.	4g	.
.	.	4f	.
.	.	2g	1ee
.	.	[2a	.
=45	=45	=45	=45
0r	0r	2a]	2.ff
.	.	2d	.
.	.	.	4ee
.	.	2.f	4dd
.	.	.	4cc
.	.	.	[2ff
.	.	4g	.
=46	=46	=46	=46
0r	0r	2a	4ff]
.	.	.	4ee
.	.	2e	1ee
.	.	2f	.
.	.	[2g	2dd
=47	=47	=47	=47
0r	0r	4g]	1.ee
.	.	4f	.
.	.	4e	.
.	.	4d	.
.	.	2c	.
.	.	[2d	4dd
.	.	.	4cc
=48	=48	=48	=48
0r	0r	4d]	2b
.	.	4e	.
.	.	4f	2.a
.	.	4d	.
.	.	4f	.
.	.	4g	4b
.	.	[2a	4cc
.	.	.	4a
=49	=49	=49	=49
0r	0r	4a]	4cc
.	.	4b	4dd
.	.	4cc	2ee
.	.	4a	.
.	.	2b	4dd
.	.	.	4ee
.	.	[2a	4ff
.	.	.	4dd
=50	=50	=50	=50
0r	0r	4a]	2ee
.	.	4g	.
.	.	2f	1dd
.	.	1e	.
.	.	.	2cc#i
=51	=51	=51	=51
0r	0r	1d	0dd
.	.	1r	.
=52	=52	=52	=52
0r	0r	1d	1r
.	.	2.f	1a
.	.	4g	.
=53	=53	=53	=53
0r	0r	4a	2.cc
.	.	4g	.
.	.	1a	.
.	.	.	4dd
.	.	.	4ee
.	.	.	4dd
.	.	4g	[2ee
.	.	4f	.
=54	=54	=54	=54
0r	0r	2e	2ee]
.	.	2.g	4dd
.	.	.	4cc
.	.	.	2b
.	.	4f	.
.	.	2d	[2dd
=55	=55	=55	=55
0r	0r	1f	4dd]
.	.	.	4cc
.	.	.	2a
.	.	1e	1cc
=56	=56	=56	=56
0r	0r	1d	1b
.	.	2.f	1a
.	.	4g	.
=57	=57	=57	=57
0r	0r	4a	2.cc
.	.	4b	.
.	.	1cc	.
.	.	.	4dd
.	.	.	4ee
.	.	.	4ff
.	.	4b	[2gg
.	.	4a	.
=58	=58	=58	=58
0r	0r	1g	2gg]
.	.	.	4ff
.	.	.	4ee
.	.	2f	2dd
.	.	4e	2cc
.	.	4d	.
=59	=59	=59	=59
0r	0r	2.c	2cc
.	.	.	4b
.	.	4d	4a
.	.	2e	2g
.	.	2f	2f
=60	=60	=60	=60
0r	0r	2c	1a
.	.	1f	.
.	.	.	1g
.	.	2b-i	.
=61	=61	=61	=61
0r	0r	2.a	2f
.	.	.	2ff
.	.	4f	.
.	.	2g	2.ee
.	.	[2f	.
.	.	.	4cc
=62	=62	=62	=62
0r	0r	4f]	2dd
.	.	4d	.
.	.	2e	2.cc
.	.	2.d	.
.	.	.	4a
.	.	.	2b
.	.	4e	.
=63	=63	=63	=63
0r	0r	4f	4a
.	.	4g	4b
.	.	1a	4cc
.	.	.	4dd
.	.	.	4ee
.	.	.	4ff
.	.	2g	[2gg
=64	=64	=64	=64
0r	0r	2.cc	4gg]
.	.	.	4ff
.	.	.	4ee
.	.	4b	4dd
.	.	2a	2ff
.	.	2g	[2ee
=65	=65	=65	=65
0r	0r	2f	2ee]
.	.	4e	1dd
.	.	4d	.
.	.	1e	.
.	.	.	2cc#i
=66	=66	=66	=66
00r	00r	00d	00dd
=67||	=67||	=67||	=67||
*M2/1	*M2/1	*M2/1	*M2/1
*met(C|)	*met(C|)	*met(C|)	*met(C|)
!!section: Osanna
!!!OMD: Osanna
1.A	[0e	0r	0r
4G	.	.	.
4F	.	.	.
=68	=68	=68	=68
1G	0e]	1r	0r
1A	.	[1a	.
=69	=69	=69	=69
1D	1f	2a]	1r
.	.	4g	.
.	.	4f	.
1r	1e	1g	[1ee
=70	=70	=70	=70
0r	1.f	1a	2ee]
.	.	.	4dd
.	.	.	4cc
.	.	1d	1dd
.	4e	.	.
.	4d	.	.
=71	=71	=71	=71
1.A	0c	0r	1ee
.	.	.	1a
4G	.	.	.
4F	.	.	.
=72	=72	=72	=72
1G	0r	1r	1b
1A	.	[1a	1a
=73	=73	=73	=73
0B	0r	2a]	1.dd
.	.	4g	.
.	.	4f	.
.	.	1g	.
.	.	.	4cc
.	.	.	4b
=74	=74	=74	=74
0A	1r	2r	1cc
.	.	2.a	.
.	[1e	.	2r
.	.	4g	.
.	.	4e	[2cc
.	.	4f	.
=75	=75	=75	=75
0G	2e]	1g	2cc]
.	4d	.	4b
.	4c	.	4a
.	1d	1G	1b
=76	=76	=76	=76
0C	0e	2r	[0cc
.	.	2.c	.
.	.	4B	.
.	.	2G	.
=77	=77	=77	=77
1r	1f	2A	0cc]
.	.	2B	.
2r	[1e	1c	.
2C	.	.	.
=78	=78	=78	=78
4C	2e]	2r	0r
4D	.	.	.
2E	4d	2g	.
.	4c	.	.
2F	2.d	2f	.
2G	.	2d	.
.	4c	.	.
=79	=79	=79	=79
1C	0g	2e	2r
.	.	2.c	2.g
1r	.	.	.
.	.	4B	4a
.	.	2G	2b
=80	=80	=80	=80
1r	1f	2A	2cc
.	.	2B	2dd
2r	[1e	1c	1g
[2C	.	.	.
=81	=81	=81	=81
4C]	1e]	2r	0r
4D	.	.	.
2E	.	2g	.
2F	1d	2f	.
2G	.	[2d	.
=82	=82	=82	=82
2C	1e	2d]	2r
2c	.	2c	2.g
2B	2r	1d	.
.	.	.	4a
2G	[2g	.	2b
=83	=83	=83	=83
1A	4g]	2r	2.cc
.	4f	.	.
.	1e	1c	.
.	.	.	4b
2r	.	.	2g
2F	2d	4B	4a
.	.	4A	4b
=84	=84	=84	=84
2E	1e	2G	4cc
.	.	.	4dd
2C	.	2c	1ee
1D	1f	2.A	.
.	.	.	2dd
.	.	4B	.
=85	=85	=85	=85
2r	0e	2c	2ee
2A	.	2A	2cc
2G	.	1B	2b
2E	.	.	2g
=86	=86	=86	=86
1F	0r	2A	2a
.	.	2a	2ff
2r	.	2g	4ee
.	.	.	4cc
2c	.	2e	[2ee
=87	=87	=87	=87
2B	1r	2f	4ee]
.	.	.	4dd
2G	.	2g	1dd
1A	1e	1e	.
.	.	.	2cc#i
=88	=88	=88	=88
[0D	3%4f	[0d	1dd
.	.	.	2r
.	3%2e	.	.
.	.	.	2a
=89	=89	=89	=89
0D]	3%4d	1d]	2b
.	.	.	2a
.	.	[1f	1dd
.	3c	.	.
.	3B	.	.
=90	=90	=90	=90
0r	[0A	2f]	3%4cc
.	.	4e	.
.	.	4d	.
.	.	1e	.
.	.	.	3%2ee
=91	=91	=91	=91
0r	0A]	3%4a	3%4ff
.	.	3%2a	3%2ee
=92	=92	=92	=92
1r	0r	3%4b	3%4dd
1A	.	.	.
.	.	3%2a	3cc
.	.	.	3b
=93	=93	=93	=93
3%4B	0r	3%4g	3%4dd
3%2A	.	3f	3%2a
.	.	3e	.
=94	=94	=94	=94
3%4G	1r	0g	3%4b
.	1e	.	.
3F	.	.	3a
3E	.	.	3g
=95	=95	=95	=95
[0D	3%4f	1r	0a
.	.	2r	.
.	3%2e	.	.
.	.	2a	.
=96	=96	=96	=96
0D]	3%4d	2b	0r
.	.	2a	.
.	.	1dd	.
.	3c	.	.
.	3B	.	.
=97	=97	=97	=97
0r	[0A	3%2.cc	1r
.	.	3b	1ee
.	.	3a	.
.	.	3g	.
=98	=98	=98	=98
0r	0A]	3%4a	3%4ff
.	.	3%2g	3%2ee
=99	=99	=99	=99
0r	0r	3%2f	3%4dd
.	.	3%2.e	.
.	.	.	3cc
.	.	3d	3b
=100	=100	=100	=100
1r	0r	3%2.f	0a
1A	.	3e	.
.	.	3%2a	.
=101	=101	=101	=101
3%4B	0r	3%4g	1r
.	.	.	1a
3%2A	.	3%2f	.
=102	=102	=102	=102
3%4G	1r	0g	3%4b
.	2r	.	.
3F	.	.	3a
.	2e	.	.
3E	.	.	3g
=103	=103	=103	=103
0D	2.f	1r	1a
.	4e	.	.
.	2.d	2r	1dd
.	.	[2f	.
.	8cL	.	.
.	8BJ	.	.
=104	=104	=104	=104
1r	2A	2f]	1cc
.	2c	4e	.
.	.	4d	.
1F	2d	4f	1a
.	.	4e	.
.	[2f	[2a	.
=105	=105	=105	=105
0G	2f]	2a]	1.b
.	4e	4g	.
.	4d	4f	.
.	1e	1g	.
.	.	.	4a
.	.	.	4b
=106	=106	=106	=106
1F	2A	[0al	2cc
.	2c	.	1ff
1D	2d	.	.
.	[2f	.	4ee
.	.	.	4dd
=107	=107	=107	=107
0A	2f]	0a_	2cc
.	4e	.	1dd
.	4d	.	.
.	1e	.	.
.	.	.	2cc#i
=108	=108	=108	=108
00D	00dl	00a]	00dd
=109||	=109||	=109||	=109||
*M2/1	*M2/1	*M2/1	*M2/1
*met(C|)	*met(C|)	*met(C|)	*met(C|)
!!section: Benedictus
!!!OMD: Benedictus
0d	0r	0r	0r
=110	=110	=110	=110
1G	0ryy	1r	0r
1d	.	[1a	.
=111	=111	=111	=111
2c	0r	1a]	0r
2A	.	.	.
2B	.	1d	.
4A	.	.	.
4G	.	.	.
=112	=112	=112	=112
1F	0r	1a	0r
1c	.	2g	.
.	.	2e	.
=113	=113	=113	=113
1d	0r	2f	0r
.	.	4e	.
.	.	4d	.
2.A	.	2c	.
.	.	2f	.
4B	.	.	.
=114	=114	=114	=114
2c	0r	2e	0ee
2A	.	2.a	.
1c	.	.	.
.	.	4g	.
.	.	[2g	.
=115	=115	=115	=115
1d	0r	2g]	1a
.	.	2f	.
1c	.	[1g	1ee
=116	=116	=116	=116
2B	0r	1g]	2dd
4A	.	.	2b
4G	.	.	.
2A	.	1f	2cc
2B	.	.	4b
.	.	.	4a
=117	=117	=117	=117
2.c	0r	2.e	2g
.	.	.	2cc
4B	.	4f	.
2G	.	2g	2b
2c	.	2a	[2ee
=118	=118	=118	=118
1d	0r	2f	4ee]
.	.	.	4dd
.	.	4e	1dd
.	.	4d	.
1A	.	1e	.
.	.	.	2cc#i
=119	=119	=119	=119
1D	0r	0d	0dd
1r	.	.	.
=120	=120	=120	=120
1A	0r	1r	0r
[1c	.	1e	.
=121	=121	=121	=121
2c]	0r	1.g	0r
4B	.	.	.
4A	.	.	.
2B	.	.	.
2c	.	4f	.
.	.	4e	.
=122	=122	=122	=122
1d	0r	2f	1a
.	.	2g	.
1A	.	1a	[1cc
=123	=123	=123	=123
0r	0r	2.e	2cc]
.	.	.	4b
.	.	4f	4a
.	.	2g	2b
.	.	2a	2cc
=124	=124	=124	=124
2r	0r	2.d	1dd
2.D	.	.	.
.	.	4e	.
.	.	4f	2.a
4E	.	4g	.
4F	.	[2a	.
4G	.	.	4b
=125	=125	=125	=125
2A	0r	4a]	2cc
.	.	4g	.
2.B	.	4f	1dd
.	.	4e	.
.	.	2f	.
4A	.	.	.
[2G	.	2g	4cc
.	.	.	4b
=126	=126	=126	=126
2G]	0r	2d	1a
2F	.	1f	.
1G	.	.	1g
.	.	2e	.
=127	=127	=127	=127
1r	0r	0f	0a
2r	.	.	.
[2D	.	.	.
=128	=128	=128	=128
4D]	0r	2.d	2r
4E	.	.	.
4F	.	.	2a
4G	.	4e	.
2.A	.	4f	4a
.	.	4g	4b
.	.	[2a	4cc
4B	.	.	4dd
=129	=129	=129	=129
2c	0r	4a]	2ee
.	.	4g	.
2.d	.	4f	2.ff
.	.	4e	.
.	.	2f	.
4c	.	.	4ee
4B	.	2g	[2dd
4A	.	.	.
=130	=130	=130	=130
2G	0r	2e	2dd]
2A	.	1a	2cc
1B	.	.	1dd
.	.	2g#i	.
=131	=131	=131	=131
0A	0r	1a	0cc
.	.	2r	.
.	.	[2e	.
=132	=132	=132	=132
2r	0r	2e]	0r
2A	.	2f	.
2B	.	1g	.
[2c	.	.	.
=133	=133	=133	=133
2c]	0r	2e	0r
2A	.	2f	.
2B	.	2.g	.
[2c	.	.	.
.	.	4f	.
=134	=134	=134	=134
4c]	0r	4e	1r
4B	.	4d	.
4A	.	1c	.
4G	.	.	.
1F	.	.	2r
.	.	[2d	2a
=135	=135	=135	=135
2G	0r	2d]	2b
1A	.	4c	1cc
.	.	4B	.
.	.	4c	.
.	.	4A	.
2F	.	[2d	2a
=136	=136	=136	=136
2G	0r	2d]	2b
2A	.	4c	2.cc
.	.	4B	.
4A	.	1c	.
4G	.	.	4b
4F	.	.	4a
4E	.	.	4g
=137	=137	=137	=137
1D	0r	1d	2f
.	.	.	4e
.	.	.	4d
1r	.	2c	1e
.	.	2A	.
=138	=138	=138	=138
1d	0r	1B	1d
2c	.	2A	1r
2A	.	[2a	.
=139	=139	=139	=139
1B	0r	4a]	1dd
.	.	4g	.
.	.	2.g	.
2A	.	.	2cc
.	.	4f	.
2F	.	[2f	2a
=140	=140	=140	=140
1G	0r	4f]	1b
.	.	4e	.
.	.	2.e	.
2F	.	.	2a
.	.	4d	.
2D	.	[2d	2f
=141	=141	=141	=141
1E	0r	2d]	1g
.	.	4c	.
.	.	4B	.
2.A	.	2c	2r
.	.	[2f	[2a
4G	.	.	.
=142	=142	=142	=142
4A	0r	2f]	4a]
4B	.	.	4g
2c	.	2e	4a
.	.	.	4b
2.F	.	2.a	2cc
.	.	.	[2f
4E	.	4g	.
=143	=143	=143	=143
4F	0r	4a	2f]
4G	.	4b	.
2A	.	2cc	2e
2D	.	1a	2f
[2A	.	.	[2cc
=144	=144	=144	=144
4A]	0r	2f	4cc]
4B	.	.	4dd
2G	.	2g	2b
2A	.	1e	2cc
[2c	.	.	[2a
=145	=145	=145	=145
4c]	0r	2f	4a]
4d	.	.	4b
2B	.	2d	2g
2c	.	2e	2a
[2A	.	2a	2cc
=146	=146	=146	=146
4A]	0r	2f	4b
4B	.	.	4a
2G	.	2g	2.dd
1A	.	1e	.
.	.	.	4cc#i
.	.	.	4cc#i
.	.	.	4b
=147	=147	=147	=147
00Dl	00r	00dl	00ddl
==	==	==	==
*-	*-	*-	*-
!!!system-decoration: [*]
!!!RDF**kern: i = editorial accidental
!!!RDF**kern: l = terminal long
!!!PTL: Occo Codex Edition
!!!PPR: The CMME Project
!!!PDT: 2008
!!!PED: Marnix van Berchum
!!!YEC: Copyright 2008 The CMME Project
!!!EED: Benjamin Ory
!!!EEV: 2025/5/7
!!!verovio: header encoded
!!!header-left: Transcribed by @{PED}\n@{PTL}, @{PPR}\n
!!!header-right:
!!!header-center: